packages/kaspersky-hexa-ui-icons/src/iconsSVGs/16/DevicePhoneAndroidSolid.svg

<svg width="16" height="16" viewBox="0 0 16 16" fill="none" xmlns="http://www.w3.org/2000/svg">
<path fill-rule="evenodd" clip-rule="evenodd" d="M3.3501 3.39985C3.3501 2.26767 4.26791 1.34985 5.4001 1.34985H10.6001C11.7323 1.34985 12.6501 2.26767 12.6501 3.39985V12.5999C12.6501 13.732 11.7323 14.6499 10.6001 14.6499H5.4001C4.26791 14.6499 3.3501 13.732 3.3501 12.5999V3.39985ZM6.68335 11.9999C6.68335 11.6409 6.97436 11.3499 7.33335 11.3499H8.66668C9.02567 11.3499 9.31668 11.6409 9.31668 11.9999C9.31668 12.3588 9.02567 12.6499 8.66668 12.6499H7.33335C6.97436 12.6499 6.68335 12.3588 6.68335 11.9999Z" fill="black"/>
</svg>

<svg xmlns="http://www.w3.org/2000/svg" width="16" height="16" fill="none" viewBox="0 0 16 16"><path fill="#000" fill-rule="evenodd" d="M3.3501 3.4c0-1.1322.9178-2.05 2.05-2.05h5.2c1.1322 0 2.05.9178 2.05 2.05v9.2c0 1.1322-.9178 2.05-2.05 2.05h-5.2c-1.1322 0-2.05-.9178-2.05-2.05zM6.6834 12a.65.65 0 0 1 .65-.65h1.3333a.65.65 0 1 1 0 1.3H7.3333a.65.65 0 0 1-.65-.65"/></svg>
